resources/svg/python-o.svg

<svg xmlns="http://www.w3.org/2000/svg" viewBox="0 0 15 15" fill="none"><path d="M6 2.5H7M4.5 4V1.5C4.5 0.947715 4.94772 0.5 5.5 0.5H9.5C10.0523 0.5 10.5 0.947715 10.5 1.5V6.5C10.5 7.05228 10.0523 7.5 9.5 7.5H5.5C4.94772 7.5 4.5 7.94772 4.5 8.5V13.5C4.5 14.0523 4.94772 14.5 5.5 14.5H9.5C10.0523 14.5 10.5 14.0523 10.5 13.5V11M8 4.5H1.5C0.947715 4.5 0.5 4.94772 0.5 5.5V10.5C0.5 11.0523 0.947715 11.5 1.5 11.5H4.5M7 10.5H13.5C14.0523 10.5 14.5 10.0523 14.5 9.5V4.5C14.5 3.94772 14.0523 3.5 13.5 3.5H10.5M8 12.5H9" stroke="black"/></svg>

<svg xmlns="http://www.w3.org/2000/svg" viewBox="0 0 15 15" fill="none"><path d="M6 2.5h1M4.5 4V1.5a1 1 0 011-1h4a1 1 0 011 1v5a1 1 0 01-1 1h-4a1 1 0 00-1 1v5a1 1 0 001 1h4a1 1 0 001-1V11M8 4.5H1.5a1 1 0 00-1 1v5a1 1 0 001 1h3m2.5-1h6.5a1 1 0 001-1v-5a1 1 0 00-1-1h-3m-2.5 9h1" stroke="currentColor"/></svg>
